X: 10
T: Humours Of Drinagh, The
Z: tziguk
S: https://thesession.org/tunes/413#setting53534
R: jig
M: 6/8
L: 1/8
K: Dmaj
|:z|FDF ABc|dfd ecA|F2F ABc|dAF G3|
F2F ABc|dfd ecA|fef gec|edc d2:|
e|:fef gfg|aba gfe|fef gfg|agf g2g|
agf gfe|fed ecA|f2f gec|edc d3:|

%-------------------- TUNE SEPARATOR --------------------%

